startshape CHRISTMAS
CF::Background = [hue 352 sat 1]

shape CHRISTMAS{
  
  TREE[s 10 hue 120 sat 1 b 0.5]
  STEM[s 11 hue 30 sat 1 b 0.3 y -4]
  STAR[s 0.3 y 20.7]
}

shape TREE{
TRIANGLE[]
TREE [y 0.2 s 0.9]
}

shape STEM{
SQUARE[s 0.2 rotate 90]
}

shape STAR{
    TRIANGLE[s 5 hue 30 sat 1 b -0.8]
    TRIANGLE[s 4 z 1 hue 60 sat 0.5 b 1]
    TRIANGLE[r 60 s 5 hue 30 sat 1 b -0.8]
    TRIANGLE[r 60 s 4 z 1 hue 60 sat 0.5 b 1]
}